build/img/sprite_auto.svg

<svg xmlns="http://www.w3.org/2000/svg" xmlns:xlink="http://www.w3.org/1999/xlink"><defs>
<pattern id="pattern0" patternContentUnits="objectBoundingBox" width="1" height="1">
<use xlink:href="#image0" transform="scale(0.0833333 0.0555556)"/>
</pattern>
<image id="image0" width="12" height="18" xlink:href="data:image/png;base64,iVBORw0KGgoAAAANSUhEUgAAAAwAAAASCAQAAADFoPeHAAAABGdBTUEAALGPC/xhBQAAACBjSFJNAAB6JgAAgIQAAPoAAACA6AAAdTAAAOpgAAA6mAAAF3CculE8AAAAAmJLR0QAAKqNIzIAAAAJcEhZcwAACxIAAAsSAdLdfvwAAAAHdElNRQfjCQwPHBzi6FhqAAAA6ElEQVQY02XML0tDYRSA8d+92xDWlsRgE2HLb7QaBiZZVaNNsfgFNFhEjGpRhtEmiKDCiuW+isGiEwyCurQPIHoN+yNzTzvPc85JchCnLJjFs/PwAUkuJlZtKOnxZc9ByItYs+6Pkk0T9pNsxoWCUb7Vixp93XGCFZMoaBTV+lvLoU28dglqqTLohjaEti4opzqgEqsQqyrgs+hOHTRjE0v9xzHJprWMM5eGN9mYvg3vKQ7HwhEpbjyM6Cy0SAm5bflQ/9iidyHcOx2G4/A4DNjxCl7s9kQy+BGrzuQWw9O/QJyXh6vB9Av2A0BxQHU/3gAAAABJRU5ErkJggg=="/>
</defs><symbol id="icon-place-mark" viewBox="0 0 12 18">
<rect width="12" height="18" fill="url(#pattern0)"/>

</symbol><symbol id="icon-tel" viewBox="0 0 24 24">
<g opacity="0.16">
<path d="M9.63262 14.8632L9.2687 19.8888C9.78938 19.8888 10.0149 19.6692 10.2853 19.4055L12.7264 17.115L17.7847 20.7519C18.7124 21.2595 19.366 20.9922 19.6163 19.914L22.9365 4.63926L22.9374 4.63836C23.2317 3.29196 22.4415 2.76547 21.5377 3.09576L2.02135 10.4316C0.689406 10.9392 0.709573 11.6682 1.79493 11.9985L6.78447 13.5222L18.3742 6.40235C18.9196 6.04775 19.4155 6.24395 19.0076 6.59855L9.63262 14.8632Z" fill="black"/>
</g>
</symbol><symbol id="icon-tick"><path d="M32.666 1.414L31.252 0 11.338 19.914 1.414 9.989 0 11.403l9.924 9.925 1.414 1.414h.001l1.414-1.414h-.001z"/></symbol><symbol id="icon-whatsapp" viewBox="0 0 24 24">
<g opacity="0.16">
<path d="M12.0025 2H11.9975C6.48375 2 2 6.485 2 12C2 14.1875 2.705 16.215 3.90375 17.8612L2.6575 21.5763L6.50125 20.3475C8.0825 21.395 9.96875 22 12.0025 22C17.5162 22 22 17.5138 22 12C22 6.48625 17.5162 2 12.0025 2ZM17.8212 16.1213C17.58 16.8025 16.6225 17.3675 15.8587 17.5325C15.3363 17.6437 14.6537 17.7325 12.3562 16.78C9.4175 15.5625 7.525 12.5763 7.3775 12.3825C7.23625 12.1887 6.19 10.8013 6.19 9.36625C6.19 7.93125 6.91875 7.2325 7.2125 6.9325C7.45375 6.68625 7.8525 6.57375 8.235 6.57375C8.35875 6.57375 8.47 6.58 8.57 6.585C8.86375 6.5975 9.01125 6.615 9.205 7.07875C9.44625 7.66 10.0337 9.095 10.1038 9.2425C10.175 9.39 10.2463 9.59 10.1462 9.78375C10.0525 9.98375 9.97 10.0725 9.8225 10.2425C9.675 10.4125 9.535 10.5425 9.3875 10.725C9.2525 10.8837 9.1 11.0538 9.27 11.3475C9.44 11.635 10.0275 12.5937 10.8925 13.3637C12.0087 14.3575 12.9137 14.675 13.2375 14.81C13.4787 14.91 13.7662 14.8863 13.9425 14.6988C14.1663 14.4575 14.4425 14.0575 14.7238 13.6638C14.9237 13.3813 15.1763 13.3462 15.4412 13.4462C15.7113 13.54 17.14 14.2462 17.4338 14.3925C17.7275 14.54 17.9212 14.61 17.9925 14.7338C18.0625 14.8575 18.0625 15.4388 17.8212 16.1213Z" fill="black"/>
</g>
</symbol></svg>

<svg xmlns="http://www.w3.org/2000/svg" xmlns:xlink="http://www.w3.org/1999/xlink"><defs><pattern id="pattern0" patternContentUnits="objectBoundingBox" width="1" height="1"><use xlink:href="#image0" transform="scale(.08333 .05556)"/></pattern><image id="image0" width="12" height="18" xlink:href="data:image/png;base64,iVBORw0KGgoAAAANSUhEUgAAAAwAAAASCAQAAADFoPeHAAAABGdBTUEAALGPC/xhBQAAACBjSFJNAAB6JgAAgIQAAPoAAACA6AAAdTAAAOpgAAA6mAAAF3CculE8AAAAAmJLR0QAAKqNIzIAAAAJcEhZcwAACxIAAAsSAdLdfvwAAAAHdElNRQfjCQwPHBzi6FhqAAAA6ElEQVQY02XML0tDYRSA8d+92xDWlsRgE2HLb7QaBiZZVaNNsfgFNFhEjGpRhtEmiKDCiuW+isGiEwyCurQPIHoN+yNzTzvPc85JchCnLJjFs/PwAUkuJlZtKOnxZc9ByItYs+6Pkk0T9pNsxoWCUb7Vixp93XGCFZMoaBTV+lvLoU28dglqqTLohjaEti4opzqgEqsQqyrgs+hOHTRjE0v9xzHJprWMM5eGN9mYvg3vKQ7HwhEpbjyM6Cy0SAm5bflQ/9iidyHcOx2G4/A4DNjxCl7s9kQy+BGrzuQWw9O/QJyXh6vB9Av2A0BxQHU/3gAAAABJRU5ErkJggg=="/></defs><symbol id="icon-place-mark"><path fill="url(#pattern0)" d="M0 0h12v18H0z"/></symbol><symbol id="icon-tel"><path d="M9.633 14.863l-.364 5.026c.52 0 .746-.22 1.016-.483l2.441-2.291 5.059 3.637c.927.508 1.581.24 1.831-.838l3.32-15.275h.001c.295-1.347-.495-1.874-1.4-1.543L2.022 10.432c-1.332.507-1.311 1.236-.226 1.566l4.99 1.524 11.59-7.12c.545-.354 1.04-.158.633.197l-9.375 8.264z" fill="#000" opacity=".16"/></symbol><symbol id="icon-tick"><path d="M32.666 1.414L31.252 0 11.338 19.914 1.414 9.989 0 11.403l9.924 9.925 1.414 1.414h.001l1.414-1.414h-.001z"/></symbol><symbol id="icon-whatsapp"><path d="M12.002 2h-.005C6.485 2 2 6.485 2 12c0 2.188.705 4.215 1.904 5.861l-1.246 3.715L6.5 20.347A9.913 9.913 0 0012.002 22C17.517 22 22 17.514 22 12S17.516 2 12.002 2zm5.82 14.121c-.242.681-1.2 1.247-1.963 1.412-.523.11-1.205.2-3.503-.753-2.938-1.218-4.831-4.204-4.978-4.398-.142-.193-1.188-1.58-1.188-3.016 0-1.435.729-2.133 1.022-2.433.242-.247.64-.36 1.023-.36.124 0 .235.007.335.012.294.013.441.03.635.494.241.581.829 2.016.899 2.163.071.148.142.348.042.542-.094.2-.176.288-.324.458-.147.17-.287.3-.434.483-.136.159-.288.329-.118.623.17.287.758 1.246 1.623 2.016 1.116.993 2.02 1.311 2.345 1.446.24.1.528.076.705-.111.223-.242.5-.642.78-1.035.2-.283.453-.318.718-.218.27.094 1.699.8 1.993.947.293.147.487.217.558.34.07.124.07.706-.17 1.388z" fill="#000" opacity=".16"/></symbol></svg>
